**harmony	**harte	**kern	**silbe	**rhyme	**timestamp	**phrase	**leadinstrument
*M4/4	*M4/4	*ICvox	*	*	*	*	*
*	*	*VRlead	*	*	*	*	*
*	*	*Hstimme	*	*	*	*	*
*A:	*A:	*A:	*	*	*	*	*
*	*	*M4/4	*	*	*	*	*
*	*	*clefF4	*	*	*	*	*
1r;	1r	r;	.	.	0	.	r
=1	=1	=1	=1	=1	=1	=1	=1
*>Letter>A	*>Letter>A	*>Letter>A	*>Letter>A	*>Letter>A	*>Letter>A	*>Letter>A	*>Letter>A
*>Label>Intro	*>Label>Intro	*>Label>Intro	*>Label>Intro	*>Label>Intro	*>Label>Intro	*>Label>Intro	*>Label>Intro
1AM	A:maj	1r	.	.	0.348	newline	guitar
=2	=2	=2	=2	=2	=2	=2	=2
1AMm	A:7	1r	.	.	1.6	.	guitar
=3	=3	=3	=3	=3	=3	=3	=3
1AM	A:maj	1r	.	.	2.851	.	guitar
=4	=4	=4	=4	=4	=4	=4	=4
1AM	A:maj	1r	.	.	4.102	.	guitar
=5	=5	=5	=5	=5	=5	=5	=5
1AM	A:maj	1r	.	.	5.354	newline	guitar
=6	=6	=6	=6	=6	=6	=6	=6
1AMm	A:7	1r	.	.	6.611	.	guitar
=7	=7	=7	=7	=7	=7	=7	=7
1AM	A:maj	1r	.	.	7.869	.	guitar
=8	=8	=8	=8	=8	=8	=8	=8
1AM	A:maj	1r	.	.	9.126	.	guitar
=9	=9	=9	=9	=9	=9	=9	=9
1AMm	A:7	1r	.	.	10.384	newline	guitar
=10	=10	=10	=10	=10	=10	=10	=10
1AMm	A:7	1r	.	.	11.636	.	guitar
=11	=11	=11	=11	=11	=11	=11	=11
1AMm	A:7	1r	.	.	12.887	.	guitar
=12	=12	=12	=12	=12	=12	=12	=12
1AMm	A:7	1r	.	.	14.139	.	guitar
=13	=13	=13	=13	=13	=13	=13	=13
1AMm	A:7	1r	.	.	15.391	newline	guitar
=14	=14	=14	=14	=14	=14	=14	=14
1AMm	A:7	1r	.	.	16.63	.	guitar
=15	=15	=15	=15	=15	=15	=15	=15
1AMm	A:7	1r	.	.	17.869	.	guitar
=16	=16	=16	=16	=16	=16	=16	=16
1AMm	A:7	1r	.	.	19.108	.	guitar
=17	=17	=17	=17	=17	=17	=17	=17
*>Letter>B	*>Letter>B	*>Letter>B	*>Letter>B	*>Letter>B	*>Letter>B	*>Letter>B	*>Letter>B
*>Label>Verse	*>Label>Verse	*>Label>Verse	*>Label>Verse	*>Label>Verse	*>Label>Verse	*>Label>Verse	*>Label>Verse
1AMm	A:7	8G	There	.	20.347	newline	voice
.	.	4G	is	.	.	.	.
.	.	4G	no-	.	.	.	.
.	.	4A	-thing	.	.	.	.
.	.	[8B	that	.	.	.	.
=18	=18	=18	=18	=18	=18	=18	=18
1AMm	A:7	8B]	_	.	21.576	.	voice
.	.	4B	is	.	.	.	.
.	.	4A	wrong	.	.	.	.
.	.	8r	.	.	.	.	.
.	.	4r	.	.	.	.	.
=19	=19	=19	=19	=19	=19	=19	=19
1AMm	A:7	8G	Wan-	.	22.805	.	voice
.	.	4G	-ting	.	.	.	.
.	.	4G	you	.	.	.	.
.	.	4A	to	.	.	.	.
.	.	[8B	stay	.	.	.	.
=20	=20	=20	=20	=20	=20	=20	=20
1AMm	A:7	4.B]	_	.	24.035	.	voice
.	.	4.A	here	.	.	.	.
.	.	4G	with	.	.	.	.
=21	=21	=21	=21	=21	=21	=21	=21
1DM	D:maj	2F#	me	A	25.264	newline	voice
.	.	2r	.	.	.	.	.
=22	=22	=22	=22	=22	=22	=22	=22
1DM	D:maj	2r	.	.	26.555	.	voice
.	.	4r	.	.	.	.	.
.	.	8r	.	.	.	.	.
.	.	8G	I	.	.	.	.
=23	=23	=23	=23	=23	=23	=23	=23
1AMm	A:7	8G	know	.	27.845	newline	voice
.	.	4G	you	.	.	.	.
.	.	4G	got	.	.	.	.
.	.	4A	some-	.	.	.	.
.	.	[8B	-where	.	.	.	.
=24	=24	=24	=24	=24	=24	=24	=24
1AMm	A:7	4B]	_	.	29.086	.	voice
.	.	8B	to	.	.	.	.
.	.	4A	go	.	.	.	.
.	.	8r	.	.	.	.	.
.	.	8r	.	.	.	.	.
.	.	8G	but	.	.	.	.
=25	=25	=25	=25	=25	=25	=25	=25
1AMm	A:7	8G	won't	.	30.327	.	voice
.	.	4G	you	.	.	.	.
.	.	4G	make	.	.	.	.
.	.	4A	your-	.	.	.	.
.	.	[8B	-self	.	.	.	.
=26	=26	=26	=26	=26	=26	=26	=26
1AMm	A:7	8B]	_	.	31.568	.	voice
.	.	4B	at	.	.	.	.
.	.	8B	home	.	.	.	.
.	.	4A	_	.	.	.	.
.	.	4G	and	.	.	.	.
=27	=27	=27	=27	=27	=27	=27	=27
1DM	D:maj	4F#	stay	.	32.809	newline	voice
.	.	8A	with	.	.	.	.
.	.	4.A	me	A	.	.	.
.	.	4r	.	.	.	.	.
=28	=28	=28	=28	=28	=28	=28	=28
1DM	D:maj	2r	.	.	34.063	.	voice
.	.	8r	.	.	.	.	.
.	.	8A	and	.	.	.	.
.	.	8A	don't	.	.	.	.
.	.	8A	you	.	.	.	.
=29	=29	=29	=29	=29	=29	=29	=29
1EM	E:maj	4B	e-	.	35.316	.	voice
.	.	8B	-ver	.	.	.	.
.	.	4.c#	leave	A	.	.	.
.	.	4r	.	.	.	.	.
=30	=30	=30	=30	=30	=30	=30	=30
1EM	E:maj	1r	.	.	36.57	.	voice
=31	=31	=31	=31	=31	=31	=31	=31
*>Letter>C	*>Letter>C	*>Letter>C	*>Letter>C	*>Letter>C	*>Letter>C	*>Letter>C	*>Letter>C
*>Label>Chorus	*>Label>Chorus	*>Label>Chorus	*>Label>Chorus	*>Label>Chorus	*>Label>Chorus	*>Label>Chorus	*>Label>Chorus
1AM	A:maj	2e	Lay	.	37.824	newline	voice
.	.	4.c#	down	.	.	.	.
.	.	[8A	Sa-	.	.	.	.
=32	=32	=32	=32	=32	=32	=32	=32
1AM	A:maj	8A]	_	.	39.08	.	voice
.	.	8A	-lly	A	.	.	.
.	.	4r	.	.	.	.	.
.	.	4r	.	.	.	.	.
.	.	8r	.	.	.	.	.
.	.	8A	and	.	.	.	.
=33	=33	=33	=33	=33	=33	=33	=33
1DM	D:maj	4A	rest	.	40.335	.	voice
.	.	8A	here	.	.	.	.
.	.	4A	in	.	.	.	.
.	.	4A	my	.	.	.	.
.	.	[8D	arms	.	.	.	.
=34	=34	=34	=34	=34	=34	=34	=34
1DM	D:maj	4D]	_	.	41.591	.	voice
.	.	4r	.	.	.	.	.
.	.	2r	.	.	.	.	.
=35	=35	=35	=35	=35	=35	=35	=35
1EM	E:maj	4B	Don't	.	42.847	newline	voice
.	.	8B	you	.	.	.	.
.	.	4B	think	.	.	.	.
.	.	4B	you	.	.	.	.
.	.	[8c#	want	.	.	.	.
=36	=36	=36	=36	=36	=36	=36	=36
1EM	E:maj	8c#]	_	.	44.095	.	voice
.	.	4c#	some-	.	.	.	.
.	.	8c#	-one	.	.	.	.
.	.	4B	_	.	.	.	.
.	.	8A	to	.	.	.	.
.	.	[8A	talk	.	.	.	.
=37	=37	=37	=37	=37	=37	=37	=37
1AM	A:maj	4A]	_	.	45.343	.	voice
.	.	8E	to?	B	.	.	.
.	.	8r	.	.	.	.	.
.	.	2r	.	.	.	.	.
=38	=38	=38	=38	=38	=38	=38	=38
1AM	A:maj	1r	.	.	46.592	.	voice
=39	=39	=39	=39	=39	=39	=39	=39
1AM	A:maj	2e	Lay	.	47.84	newline	voice
.	.	4.c#	down	.	.	.	.
.	.	[8A	Sa-	.	.	.	.
=40	=40	=40	=40	=40	=40	=40	=40
1AM	A:maj	8A]	_	.	49.108	.	voice
.	.	8A	-lly	.	.	.	.
.	.	4r	.	.	.	.	.
.	.	4r	.	.	.	.	.
.	.	8r	.	.	.	.	.
.	.	8A	No	.	.	.	.
=41	=41	=41	=41	=41	=41	=41	=41
1DM	D:maj	4A	need	.	50.375	.	voice
.	.	8A	to	.	.	.	.
.	.	4A	leave	.	.	.	.
.	.	4A	so	.	.	.	.
.	.	[8D	soon	B	.	.	.
=42	=42	=42	=42	=42	=42	=42	=42
1DM	D:maj	4D]	_	.	51.643	.	voice
.	.	8r	.	.	.	.	.
.	.	8r	.	.	.	.	.
.	.	2r	.	.	.	.	.
=43	=43	=43	=43	=43	=43	=43	=43
1EM	E:maj	8B	I've	.	52.911	newline	voice
.	.	4B	been	.	.	.	.
.	.	2B	trying	.	.	.	.
.	.	[8c#	all	.	.	.	.
=44	=44	=44	=44	=44	=44	=44	=44
1EM	E:maj	8c#]	_	.	54.157	.	voice
.	.	4c#	night	.	.	.	.
.	.	8c#	long	.	.	.	.
.	.	4B	_	.	.	.	.
.	.	8A	just	.	.	.	.
.	.	8A	to	.	.	.	.
=45	=45	=45	=45	=45	=45	=45	=45
1AM	A:maj	4A	talk	.	55.404	.	voice
.	.	8F#	to	.	.	.	.
.	.	4.A	you	B	.	.	.
.	.	4r	.	.	.	.	.
=46	=46	=46	=46	=46	=46	=46	=46
1AM	A:maj	1r	.	.	56.65	.	voice
=47	=47	=47	=47	=47	=47	=47	=47
*>Letter>D	*>Letter>D	*>Letter>D	*>Letter>D	*>Letter>D	*>Letter>D	*>Letter>D	*>Letter>D
*>Label>Interlude	*>Label>Interlude	*>Label>Interlude	*>Label>Interlude	*>Label>Interlude	*>Label>Interlude	*>Label>Interlude	*>Label>Interlude
1AMm	A:7	1r	.	.	57.897	newline	guitar
=48	=48	=48	=48	=48	=48	=48	=48
1AMm	A:7	1r	.	.	59.157	.	guitar
=49	=49	=49	=49	=49	=49	=49	=49
1AMm	A:7	1r	.	.	60.417	.	guitar
=50	=50	=50	=50	=50	=50	=50	=50
1AMm	A:7	1r	.	.	61.677	.	guitar
=51	=51	=51	=51	=51	=51	=51	=51
1AMm	A:7	1r	.	.	62.937	newline	guitar
=52	=52	=52	=52	=52	=52	=52	=52
1AMm	A:7	1r	.	.	64.188	.	guitar
=53	=53	=53	=53	=53	=53	=53	=53
1AMm	A:7	1r	.	.	65.44	.	guitar
=54	=54	=54	=54	=54	=54	=54	=54
1AMm	A:7	1r	.	.	66.691	.	guitar
=55	=55	=55	=55	=55	=55	=55	=55
*>Letter>B	*>Letter>B	*>Letter>B	*>Letter>B	*>Letter>B	*>Letter>B	*>Letter>B	*>Letter>B
*>Label>Verse	*>Label>Verse	*>Label>Verse	*>Label>Verse	*>Label>Verse	*>Label>Verse	*>Label>Verse	*>Label>Verse
1AMm	A:7	8G	Sun	.	67.943	newline	voice
.	.	4G	ain't	.	.	.	.
.	.	4G	near-	.	.	.	.
.	.	4A	-ly	.	.	.	.
.	.	[8B	on	.	.	.	.
=56	=56	=56	=56	=56	=56	=56	=56
1AMm	A:7	8B]	_	.	69.18	.	voice
.	.	4B	the	.	.	.	.
.	.	4.A	rise	C	.	.	.
.	.	4r	.	.	.	.	.
=57	=57	=57	=57	=57	=57	=57	=57
1AMm	A:7	8G	We	.	70.417	.	voice
.	.	4G	still	.	.	.	.
.	.	4G	got	.	.	.	.
.	.	4A	the	.	.	.	.
.	.	[8B	moon	.	.	.	.
=58	=58	=58	=58	=58	=58	=58	=58
1AMm	A:7	8B]	_	.	71.654	.	voice
.	.	4B	and	.	.	.	.
.	.	8B	stars	.	.	.	.
.	.	4A	_	.	.	.	.
.	.	8G	a-	.	.	.	.
.	.	[8F#	-bove	.	.	.	.
=59	=59	=59	=59	=59	=59	=59	=59
1DM	D:maj	4F#]	_	.	72.891	newline	voice
.	.	4r	.	.	.	.	.
.	.	2r	.	.	.	.	.
=60	=60	=60	=60	=60	=60	=60	=60
1DM	D:maj	1r	.	.	74.16	.	voice
=61	=61	=61	=61	=61	=61	=61	=61
1AMm	A:7	8G	Un-	.	75.428	newline	voice
.	.	4G	-der-	.	.	.	.
.	.	4G	-neath	.	.	.	.
.	.	4A	the	.	.	.	.
.	.	[8B	vel-	.	.	.	.
=62	=62	=62	=62	=62	=62	=62	=62
1AMm	A:7	8B]	_	.	76.698	.	voice
.	.	4B	-vet	.	.	.	.
.	.	4.A	skies	C	.	.	.
.	.	4r	.	.	.	.	.
=63	=63	=63	=63	=63	=63	=63	=63
1AMm	A:7	8G	love	.	77.969	.	voice
.	.	4G	is	.	.	.	.
.	.	4G	all	.	.	.	.
.	.	4A	that	.	.	.	.
.	.	[8B	ma-	.	.	.	.
=64	=64	=64	=64	=64	=64	=64	=64
1AMm	A:7	8B]	_	.	79.24	.	voice
.	.	4B	-tters	.	.	.	.
.	.	8B	Won't	.	.	.	.
.	.	4A	_	.	.	.	.
.	.	4G	you	.	.	.	.
=65	=65	=65	=65	=65	=65	=65	=65
1DM	D:maj	4F#	stay	.	80.51	newline	voice
.	.	8A	with	.	.	.	.
.	.	4.A	me?	A	.	.	.
.	.	4r	.	.	.	.	.
=66	=66	=66	=66	=66	=66	=66	=66
1DM	D:maj	2r	.	.	81.763	.	voice
.	.	4r	.	.	.	.	.
.	.	8A	Don't	.	.	.	.
.	.	8A	you	.	.	.	.
=67	=67	=67	=67	=67	=67	=67	=67
1EM	E:maj	4B	e-	.	83.015	.	voice
.	.	8B	-ver	.	.	.	.
.	.	4.c#	leave	A	.	.	.
.	.	4r	.	.	.	.	.
=68	=68	=68	=68	=68	=68	=68	=68
1EM	E:maj	1r	.	.	84.268	.	voice
=69	=69	=69	=69	=69	=69	=69	=69
*>Letter>C	*>Letter>C	*>Letter>C	*>Letter>C	*>Letter>C	*>Letter>C	*>Letter>C	*>Letter>C
*>Label>Chorus	*>Label>Chorus	*>Label>Chorus	*>Label>Chorus	*>Label>Chorus	*>Label>Chorus	*>Label>Chorus	*>Label>Chorus
1AM	A:maj	2e	Lay	.	85.52	newline	voice
.	.	4.c#	down	.	.	.	.
.	.	[8A	Sa-	.	.	.	.
=70	=70	=70	=70	=70	=70	=70	=70
1AM	A:maj	8A]	_	.	86.768	.	voice
.	.	8A	-lly	A	.	.	.
.	.	4r	.	.	.	.	.
.	.	4r	.	.	.	.	.
.	.	8r	.	.	.	.	.
.	.	8A	and	.	.	.	.
=71	=71	=71	=71	=71	=71	=71	=71
1DM	D:maj	4A	rest	.	88.016	.	voice
.	.	8A	here	.	.	.	.
.	.	4A	in	.	.	.	.
.	.	4A	my	.	.	.	.
.	.	[8D	arms	.	.	.	.
=72	=72	=72	=72	=72	=72	=72	=72
1DM	D:maj	4D]	_	.	89.264	.	voice
.	.	4r	.	.	.	.	.
.	.	2r	.	.	.	.	.
=73	=73	=73	=73	=73	=73	=73	=73
1EM	E:maj	4B	Don't	.	90.512	newline	voice
.	.	8B	you	.	.	.	.
.	.	4B	think	.	.	.	.
.	.	4B	you	.	.	.	.
.	.	[8c#	want	.	.	.	.
=74	=74	=74	=74	=74	=74	=74	=74
1EM	E:maj	8c#]	_	.	91.769	.	voice
.	.	4c#	some-	.	.	.	.
.	.	8c#	-one	.	.	.	.
.	.	4B	_	.	.	.	.
.	.	8A	to	.	.	.	.
.	.	[8A	talk	.	.	.	.
=75	=75	=75	=75	=75	=75	=75	=75
1AM	A:maj	4A]	_	.	93.026	.	voice
.	.	8E	to?	B	.	.	.
.	.	8r	.	.	.	.	.
.	.	2r	.	.	.	.	.
=76	=76	=76	=76	=76	=76	=76	=76
1AM	A:maj	1r	.	.	94.282	.	voice
=77	=77	=77	=77	=77	=77	=77	=77
1AM	A:maj	2e	Lay	.	95.539	newline	voice
.	.	4.c#	down	.	.	.	.
.	.	[8A	Sa-	.	.	.	.
=78	=78	=78	=78	=78	=78	=78	=78
1AM	A:maj	8A]	_	.	96.799	.	voice
.	.	8A	-lly	.	.	.	.
.	.	4r	.	.	.	.	.
.	.	8r	.	.	.	.	.
.	.	8A	Ain't	.	.	.	.
.	.	4A	no	.	.	.	.
=79	=79	=79	=79	=79	=79	=79	=79
1DM	D:maj	4A	need	.	98.059	.	voice
.	.	8A	to	.	.	.	.
.	.	4A	leave	.	.	.	.
.	.	4A	so	.	.	.	.
.	.	8r	.	.	.	.	.
=80	=80	=80	=80	=80	=80	=80	=80
1DM	D:maj	4D	soon	B	99.32	.	voice
.	.	4r	.	.	.	.	.
.	.	2r	.	.	.	.	.
=81	=81	=81	=81	=81	=81	=81	=81
1EM	E:maj	8B	I've	.	100.58	newline	voice
.	.	4B	been	.	.	.	.
.	.	2B	trying	.	.	.	.
.	.	[8c#	all	.	.	.	.
=82	=82	=82	=82	=82	=82	=82	=82
1EM	E:maj	8c#]	_	.	101.817	.	voice
.	.	4c#	night	.	.	.	.
.	.	8c#	long	.	.	.	.
.	.	4B	_	.	.	.	.
.	.	8A	just	.	.	.	.
.	.	8A	to	.	.	.	.
=83	=83	=83	=83	=83	=83	=83	=83
1AM	A:maj	4A	talk	.	103.055	.	voice
.	.	8F#	to	.	.	.	.
.	.	4.A	you	B	.	.	.
.	.	4r	.	.	.	.	.
=84	=84	=84	=84	=84	=84	=84	=84
1AM	A:maj	1r	.	.	104.292	.	voice
=85	=85	=85	=85	=85	=85	=85	=85
*>Letter>E	*>Letter>E	*>Letter>E	*>Letter>E	*>Letter>E	*>Letter>E	*>Letter>E	*>Letter>E
*>Label>Solo	*>Label>Solo	*>Label>Solo	*>Label>Solo	*>Label>Solo	*>Label>Solo	*>Label>Solo	*>Label>Solo
1AMm	A:7	1r	.	.	105.53	newline	guitar
=86	=86	=86	=86	=86	=86	=86	=86
1AMm	A:7	1r	.	.	106.786	.	guitar
=87	=87	=87	=87	=87	=87	=87	=87
1AMm	A:7	1r	.	.	108.042	.	guitar
=88	=88	=88	=88	=88	=88	=88	=88
1AMm	A:7	1r	.	.	109.298	.	guitar
=89	=89	=89	=89	=89	=89	=89	=89
1AMm	A:7	1r	.	.	110.554	newline	guitar
=90	=90	=90	=90	=90	=90	=90	=90
1AMm	A:7	1r	.	.	111.807	.	guitar
=91	=91	=91	=91	=91	=91	=91	=91
1AMm	A:7	1r	.	.	113.061	.	guitar
=92	=92	=92	=92	=92	=92	=92	=92
1AMm	A:7	1r	.	.	114.315	.	guitar
=93	=93	=93	=93	=93	=93	=93	=93
1AMm	A:7	1r	.	.	115.568	newline	guitar
=94	=94	=94	=94	=94	=94	=94	=94
1AMm	A:7	1r	.	.	116.822	.	guitar
=95	=95	=95	=95	=95	=95	=95	=95
1AMm	A:7	1r	.	.	118.076	.	guitar
=96	=96	=96	=96	=96	=96	=96	=96
1AMm	A:7	1r	.	.	119.329	.	guitar
=97	=97	=97	=97	=97	=97	=97	=97
1AMm	A:7	1r	.	.	120.583	newline	guitar
=98	=98	=98	=98	=98	=98	=98	=98
1AMm	A:7	1r	.	.	121.819	.	guitar
=99	=99	=99	=99	=99	=99	=99	=99
1AMm	A:7	1r	.	.	123.054	.	guitar
=100	=100	=100	=100	=100	=100	=100	=100
1AMm	A:7	1r	.	.	124.29	.	guitar
=101	=101	=101	=101	=101	=101	=101	=101
1AMm	A:7	1r	.	.	125.526	newline	guitar
=102	=102	=102	=102	=102	=102	=102	=102
1AMm	A:7	1r	.	.	126.784	.	guitar
=103	=103	=103	=103	=103	=103	=103	=103
1AMm	A:7	1r	.	.	128.043	.	guitar
=104	=104	=104	=104	=104	=104	=104	=104
1AMm	A:7	1r	.	.	129.301	.	guitar
=105	=105	=105	=105	=105	=105	=105	=105
1AMm	A:7	1r	.	.	130.56	newline	guitar
=106	=106	=106	=106	=106	=106	=106	=106
1AMm	A:7	1r	.	.	131.786	.	guitar
=107	=107	=107	=107	=107	=107	=107	=107
1AMm	A:7	1r	.	.	133.011	.	guitar
=108	=108	=108	=108	=108	=108	=108	=108
1AMm	A:7	1r	.	.	134.237	.	guitar
=109	=109	=109	=109	=109	=109	=109	=109
1AMm	A:7	1r	.	.	135.462	newline	guitar
=110	=110	=110	=110	=110	=110	=110	=110
1AMm	A:7	1r	.	.	136.736	.	guitar
=111	=111	=111	=111	=111	=111	=111	=111
1AMm	A:7	1r	.	.	138.01	.	guitar
=112	=112	=112	=112	=112	=112	=112	=112
1AMm	A:7	1r	.	.	139.284	.	guitar
=113	=113	=113	=113	=113	=113	=113	=113
1AMm	A:7	1r	.	.	140.559	newline	guitar
=114	=114	=114	=114	=114	=114	=114	=114
1AMm	A:7	1r	.	.	141.796	.	guitar
=115	=115	=115	=115	=115	=115	=115	=115
1AMm	A:7	1r	.	.	143.033	.	guitar
=116	=116	=116	=116	=116	=116	=116	=116
1AMm	A:7	2r	.	.	144.27	.	guitar
.	.	4r	.	.	.	.	.
.	.	8r	.	.	.	.	.
.	.	8E	I	.	.	.	.
=117	=117	=117	=117	=117	=117	=117	=117
*>Letter>B	*>Letter>B	*>Letter>B	*>Letter>B	*>Letter>B	*>Letter>B	*>Letter>B	*>Letter>B
*>Label>Verse	*>Label>Verse	*>Label>Verse	*>Label>Verse	*>Label>Verse	*>Label>Verse	*>Label>Verse	*>Label>Verse
1AMm	A:7	4G	long	.	145.508	newline	voice
.	.	8G	to	.	.	.	.
.	.	4G	see	.	.	.	.
.	.	4A	the	.	.	.	.
.	.	[8B	morn-	.	.	.	.
=118	=118	=118	=118	=118	=118	=118	=118
1AMm	A:7	8B]	_	.	146.78	.	voice
.	.	4B	-ing	.	.	.	.
.	.	4.A	light	C	.	.	.
.	.	4r	.	.	.	.	.
=119	=119	=119	=119	=119	=119	=119	=119
1AMm	A:7	8G	Col-	.	148.052	.	voice
.	.	4G	-or-	.	.	.	.
.	.	4G	-ing	.	.	.	.
.	.	4A	your	.	.	.	.
.	.	[8B	face	.	.	.	.
=120	=120	=120	=120	=120	=120	=120	=120
1AMm	A:7	8B]	_	.	149.324	.	voice
.	.	4B	so	.	.	.	.
.	.	4.A	dream-	.	.	.	.
.	.	8G	-i-	.	.	.	.
.	.	[8F#	-ly	A	.	.	.
=121	=121	=121	=121	=121	=121	=121	=121
1DM	D:maj	2F#]	_	.	150.595	newline	voice
.	.	2r	.	.	.	.	.
=122	=122	=122	=122	=122	=122	=122	=122
1DM	D:maj	2r	.	.	151.873	.	voice
.	.	4.r	.	.	.	.	.
.	.	8G	So	.	.	.	.
=123	=123	=123	=123	=123	=123	=123	=123
1AMm	A:7	8G	don't	.	153.15	newline	voice
.	.	4G	you	.	.	.	.
.	.	4G	go	.	.	.	.
.	.	4A	and	.	.	.	.
.	.	[8B	say	.	.	.	.
=124	=124	=124	=124	=124	=124	=124	=124
1AMm	A:7	8B]	_	.	154.386	.	voice
.	.	4B	good-	.	.	.	.
.	.	4.A	-bye	C	.	.	.
.	.	4r	.	.	.	.	.
=125	=125	=125	=125	=125	=125	=125	=125
1AMm	A:7	8G	You	.	155.622	.	voice
.	.	4G	can	.	.	.	.
.	.	4G	lay	.	.	.	.
.	.	4A	your	.	.	.	.
.	.	[8B	wor-	.	.	.	.
=126	=126	=126	=126	=126	=126	=126	=126
1AMm	A:7	8B]	_	.	156.858	.	voice
.	.	4B	-ries	A	.	.	.
.	.	8B	down	.	.	.	.
.	.	4A	_	.	.	.	.
.	.	4G	and	.	.	.	.
=127	=127	=127	=127	=127	=127	=127	=127
1DM	D:maj	4F#	stay	.	158.093	newline	voice
.	.	8A	with	.	.	.	.
.	.	4.A	me	A	.	.	.
.	.	4r	.	.	.	.	.
=128	=128	=128	=128	=128	=128	=128	=128
1DM	D:maj	2r	.	.	159.36	.	voice
.	.	4r	.	.	.	.	.
.	.	8A	Don't	.	.	.	.
.	.	8A	you	.	.	.	.
=129	=129	=129	=129	=129	=129	=129	=129
1EM	E:maj	4B	e-	.	160.627	.	voice
.	.	8B	-ver	.	.	.	.
.	.	4.c#	leave	A	.	.	.
.	.	4r	.	.	.	.	.
=130	=130	=130	=130	=130	=130	=130	=130
1EM	E:maj	1r	.	.	161.893	.	voice
=131	=131	=131	=131	=131	=131	=131	=131
*>Letter>C	*>Letter>C	*>Letter>C	*>Letter>C	*>Letter>C	*>Letter>C	*>Letter>C	*>Letter>C
*>Label>Chorus	*>Label>Chorus	*>Label>Chorus	*>Label>Chorus	*>Label>Chorus	*>Label>Chorus	*>Label>Chorus	*>Label>Chorus
1AM	A:maj	2e	Lay	.	163.16	newline	voice
.	.	4.c#	down	.	.	.	.
.	.	[8A	Sa-	.	.	.	.
=132	=132	=132	=132	=132	=132	=132	=132
1AM	A:maj	8A]	_	.	164.424	.	voice
.	.	8A	-lly	A	.	.	.
.	.	4r	.	.	.	.	.
.	.	4r	.	.	.	.	.
.	.	8r	.	.	.	.	.
.	.	8A	and	.	.	.	.
=133	=133	=133	=133	=133	=133	=133	=133
1DM	D:maj	4A	rest	.	165.687	.	voice
.	.	8A	here	.	.	.	.
.	.	4A	in	.	.	.	.
.	.	4A	my	.	.	.	.
.	.	[8D	arms	.	.	.	.
=134	=134	=134	=134	=134	=134	=134	=134
1DM	D:maj	4D]	_	.	166.951	.	voice
.	.	4r	.	.	.	.	.
.	.	2r	.	.	.	.	.
=135	=135	=135	=135	=135	=135	=135	=135
1EM	E:maj	4B	Don't	.	168.215	newline	voice
.	.	8B	you	.	.	.	.
.	.	4B	think	.	.	.	.
.	.	4B	you	.	.	.	.
.	.	[8c#	want	.	.	.	.
=136	=136	=136	=136	=136	=136	=136	=136
1EM	E:maj	8c#]	_	.	169.487	.	voice
.	.	4c#	some-	.	.	.	.
.	.	8c#	-one	.	.	.	.
.	.	4B	_	.	.	.	.
.	.	8A	to	.	.	.	.
.	.	[8A	talk	.	.	.	.
=137	=137	=137	=137	=137	=137	=137	=137
1AM	A:maj	4A]	_	.	170.759	.	voice
.	.	8E	to?	B	.	.	.
.	.	8r	.	.	.	.	.
.	.	2r	.	.	.	.	.
=138	=138	=138	=138	=138	=138	=138	=138
1AM	A:maj	1r	.	.	172.031	.	voice
=139	=139	=139	=139	=139	=139	=139	=139
1AM	A:maj	2e	Lay	.	173.303	newline	voice
.	.	4.c#	down	.	.	.	.
.	.	[8A	Sa-	.	.	.	.
=140	=140	=140	=140	=140	=140	=140	=140
1AM	A:maj	8A]	_	.	174.568	.	voice
.	.	8A	-lly	.	.	.	.
.	.	4r	.	.	.	.	.
.	.	8r	.	.	.	.	.
.	.	8A	There's	.	.	.	.
.	.	4A	no	.	.	.	.
=141	=141	=141	=141	=141	=141	=141	=141
1DM	D:maj	4A	need	.	175.834	.	voice
.	.	8A	to	.	.	.	.
.	.	4A	leave	.	.	.	.
.	.	4A	so	.	.	.	.
.	.	[8D	soon	B	.	.	.
=142	=142	=142	=142	=142	=142	=142	=142
1DM	D:maj	4D]	_	.	177.099	.	voice
.	.	4r	.	.	.	.	.
.	.	2r	.	.	.	.	.
=143	=143	=143	=143	=143	=143	=143	=143
1EM	E:maj	8B	I've	.	178.365	newline	voice
.	.	4B	been	.	.	.	.
.	.	2B	trying	.	.	.	.
.	.	[8c#	all	.	.	.	.
=144	=144	=144	=144	=144	=144	=144	=144
1EM	E:maj	8c#]	_	.	179.629	.	voice
.	.	4c#	night	.	.	.	.
.	.	8c#	long	.	.	.	.
.	.	4B	_	.	.	.	.
.	.	8A	just	.	.	.	.
.	.	8A	to	.	.	.	.
=145	=145	=145	=145	=145	=145	=145	=145
1AM	A:maj	4A	talk	.	180.892	.	voice
.	.	8F#	to	.	.	.	.
.	.	4.A	you	B	.	.	.
.	.	4r	.	.	.	.	.
=146	=146	=146	=146	=146	=146	=146	=146
1AM	A:maj	1r	.	.	182.156	.	voice
=147	=147	=147	=147	=147	=147	=147	=147
*>Letter>C	*>Letter>C	*>Letter>C	*>Letter>C	*>Letter>C	*>Letter>C	*>Letter>C	*>Letter>C
*>Label>Chorus	*>Label>Chorus	*>Label>Chorus	*>Label>Chorus	*>Label>Chorus	*>Label>Chorus	*>Label>Chorus	*>Label>Chorus
1AM	A:maj	2e	Lay	.	183.42	newline	voice
.	.	4.c#	down	.	.	.	.
.	.	[8A	Sa-	.	.	.	.
=148	=148	=148	=148	=148	=148	=148	=148
1AM	A:maj	8A]	_	.	184.687	.	voice
.	.	8A	-lly	.	.	.	.
.	.	4r	.	.	.	.	.
.	.	4r	.	.	.	.	.
.	.	8r	.	.	.	.	.
.	.	8A	and	.	.	.	.
=149	=149	=149	=149	=149	=149	=149	=149
1DM	D:maj	4A	rest	.	185.955	.	voice
.	.	8A	here	.	.	.	.
.	.	4A	in	.	.	.	.
.	.	4A	my	.	.	.	.
.	.	[8D	arms	.	.	.	.
=150	=150	=150	=150	=150	=150	=150	=150
1DM	D:maj	4D]	_	.	187.222	.	voice
.	.	4r	.	.	.	.	.
.	.	2r	.	.	.	.	.
=151	=151	=151	=151	=151	=151	=151	=151
1EM	E:maj	4B	Don't	.	188.489	newline	voice
.	.	8B	you	.	.	.	.
.	.	4B	think	.	.	.	.
.	.	4B	you	.	.	.	.
.	.	[8c#	want	.	.	.	.
=152	=152	=152	=152	=152	=152	=152	=152
1EM	E:maj	8c#]	_	.	189.75	.	voice
.	.	4c#	some-	.	.	.	.
.	.	8c#	-one	.	.	.	.
.	.	4B	_	.	.	.	.
.	.	8A	to	.	.	.	.
.	.	[8A	talk	.	.	.	.
=153	=153	=153	=153	=153	=153	=153	=153
1AM	A:maj	4A]	_	.	191.01	.	voice
.	.	8E	to?	B	.	.	.
.	.	8r	.	.	.	.	.
.	.	2r	.	.	.	.	.
=154	=154	=154	=154	=154	=154	=154	=154
1AM	A:maj	1r	.	.	192.27	.	voice
=155	=155	=155	=155	=155	=155	=155	=155
1AM	A:maj	2e	Lay	.	193.53	newline	voice
.	.	4.c#	down	.	.	.	.
.	.	[8A	Sa-	.	.	.	.
=156	=156	=156	=156	=156	=156	=156	=156
1AM	A:maj	8A]	_	.	194.836	.	voice
.	.	8A	-lly	.	.	.	.
.	.	4r	.	.	.	.	.
.	.	8r	.	.	.	.	.
.	.	8A	There's	.	.	.	.
.	.	4A	no	.	.	.	.
=157	=157	=157	=157	=157	=157	=157	=157
1DM	D:maj	4A	need	.	196.142	.	voice
.	.	8A	to	.	.	.	.
.	.	4A	leave	.	.	.	.
.	.	4.A	so	.	.	.	.
=158	=158	=158	=158	=158	=158	=158	=158
1DM	D:maj	4D	soon	B	197.448	.	voice
.	.	4r	.	.	.	.	.
.	.	2r	.	.	.	.	.
=159	=159	=159	=159	=159	=159	=159	=159
1EM	E:maj	8B	I've	.	198.754	newline	voice
.	.	4B	been	.	.	.	.
.	.	2B	trying	.	.	.	.
.	.	[8c#	all	.	.	.	.
=160	=160	=160	=160	=160	=160	=160	=160
1EM	E:maj	8c#]	_	.	199.97	.	voice
.	.	4c#	night	.	.	.	.
.	.	8c#	long	.	.	.	.
.	.	4B	_	.	.	.	.
.	.	8A	just	.	.	.	.
.	.	8A	to	.	.	.	.
=161	=161	=161	=161	=161	=161	=161	=161
1AM	A:maj	4A	talk	.	201.187	.	voice
.	.	8F#	to	.	.	.	.
.	.	4.A	you	B	.	.	.
.	.	4r	.	.	.	.	.
=162	=162	=162	=162	=162	=162	=162	=162
1AM	A:maj	1r	.	.	202.403	.	voice
=163	=163	=163	=163	=163	=163	=163	=163
*>Letter>F	*>Letter>F	*>Letter>F	*>Letter>F	*>Letter>F	*>Letter>F	*>Letter>F	*>Letter>F
*>Label>Outro	*>Label>Outro	*>Label>Outro	*>Label>Outro	*>Label>Outro	*>Label>Outro	*>Label>Outro	*>Label>Outro
1AMm	A:7	1r	.	.	203.619	newline	guitar
=164	=164	=164	=164	=164	=164	=164	=164
1AMm	A:7	1r	.	.	204.891	.	guitar
=165	=165	=165	=165	=165	=165	=165	=165
1AMm	A:7	1r	.	.	206.164	.	guitar
=166	=166	=166	=166	=166	=166	=166	=166
1AMm	A:7	1r	.	.	207.436	.	guitar
=167	=167	=167	=167	=167	=167	=167	=167
1AMm	A:7	1r	.	.	208.708	newline	guitar
=168	=168	=168	=168	=168	=168	=168	=168
1AMm	A:7	1r	.	.	209.948	.	guitar
=169	=169	=169	=169	=169	=169	=169	=169
1AMm	A:7	1r	.	.	211.188	.	guitar
=170	=170	=170	=170	=170	=170	=170	=170
1AMm	A:7	1r	.	.	212.428	.	guitar
=171	=171	=171	=171	=171	=171	=171	=171
1AMm	A:7	1r	.	.	213.668	newline	fadeout guitar
=172	=172	=172	=172	=172	=172	=172	=172
1AMm	A:7	1r	.	.	214.936	.	fadeout guitar
=173	=173	=173	=173	=173	=173	=173	=173
1AMm	A:7	1r	.	.	216.204	.	fadeout guitar
=174	=174	=174	=174	=174	=174	=174	=174
1AMm	A:7	1r	.	.	217.472	.	fadeout guitar
=175	=175	=175	=175	=175	=175	=175	=175
1AMm	A:7	1r	.	.	218.74	newline	fadeout guitar
=176	=176	=176	=176	=176	=176	=176	=176
1AMm	A:7	1r	.	.	220.009	.	fadeout guitar
=177	=177	=177	=177	=177	=177	=177	=177
1AMm	A:7	1r	.	.	221.279	.	fadeout guitar
=178	=178	=178	=178	=178	=178	=178	=178
1AMm	A:7	1r	.	.	222.548	.	fadeout guitar
1r;	1r	r;	.	.	226.673	.	r
1r;	1r	r;	.	.	230.844	.	r
*-	*-	*-	*-	*-	*-	*-	*-
!!!BillboardChartDate: 1978/05/20
!!!BillboardPeak: 3
!!!BillboardWeeksOnChart: 23
!!!COC: Eric Clapton
!!!ENC: Nathaniel Condit-Schultz
!!!EST: Awating manual error checking and editing.
!!!OTL: Lay Down Sally
!!!RDF**chordsym: original McGill chord annotation + (implied pitch class set, with bass pitch in first position)
!!!RDF**harmony: **recip + pitch class of root + harmonic quality
!!!RDF**leadinstrument: original McGill primary instrumentation annotation
!!!RDF**phrase: newline = linebreak in original McGill transcription
!!!RDF**timestamp: McGill audio timestamp in seconds
!!!RDT: 2017/01/12/
!!!SampleActualRank: 24
!!!SampleID#: 1040
!!!SampleTargetRank: 24
!!!MBID: 16555dd6-3304-4dc1-b030-7461a00c86a6
